tools/download-figma-icons/icons/outlined-large/smiley-sad.svg

<svg width="64" height="64" viewBox="0 0 64 64" fill="none" xmlns="http://www.w3.org/2000/svg">
<path fill-rule="evenodd" clip-rule="evenodd" d="M3 32C3 47.99 16.01 61 32 61C47.99 61 61 47.99 61 32C61 16.01 47.99 3 32 3C16.01 3 3 16.01 3 32ZM6 32C6 17.663 17.663 6 32 6C46.337 6 58 17.663 58 32C58 46.337 46.337 58 32 58C17.663 58 6 46.337 6 32ZM11 27.5003C11 28.3282 11.6719 29.0001 12.4998 29.0003C21.4131 28.9999 23.795 23.3002 23.892 23.0573C24.197 22.2953 23.829 21.4373 23.07 21.1233C22.308 20.8083 21.437 21.1723 21.114 21.9273C21.043 22.0933 19.29 26.0003 12.5 26.0003C11.672 26.0003 11 26.6723 11 27.5003ZM21.332 39.7686C19.499 39.7686 17.495 39.2166 15.562 37.6706C14.916 37.1526 14.811 36.2096 15.329 35.5626C15.845 34.9166 16.787 34.8106 17.437 35.3296C21.452 38.5406 25.396 35.4626 25.562 35.3296C26.211 34.8106 27.156 34.9176 27.67 35.5626C28.188 36.2096 28.083 37.1536 27.437 37.6706C26.228 38.6386 23.955 39.7686 21.332 39.7686ZM36.562 37.6706C38.495 39.2166 40.4991 39.7686 42.3321 39.7686C44.955 39.7686 47.2281 38.6386 48.437 37.6706C49.083 37.1536 49.188 36.2096 48.67 35.5626C48.154 34.9176 47.212 34.8106 46.562 35.3296C46.396 35.4626 42.454 38.5406 38.437 35.3296C37.787 34.8106 36.846 34.9166 36.329 35.5626C35.811 36.2096 35.916 37.1526 36.562 37.6706ZM51.5 28.9998C42.587 28.9998 40.204 23.2998 40.107 23.0568C39.799 22.2878 40.173 21.4148 40.943 21.1078C41.706 20.8018 42.575 21.1698 42.886 21.9288C42.973 22.1278 44.74 25.9998 51.499 25.9998C52.327 25.9998 52.999 26.6718 52.999 27.4998C52.999 28.3278 52.328 28.9998 51.5 28.9998ZM27.5 51H36.358C37.186 51 37.858 50.328 37.858 49.5C37.858 48.672 37.186 48 36.358 48H27.5C26.672 48 26 48.672 26 49.5C26 50.328 26.672 51 27.5 51Z" fill="black"/>
</svg>

<svg xmlns="http://www.w3.org/2000/svg" width="64" height="64" fill="none" viewBox="0 0 64 64"><path fill="currentColor" fill-rule="evenodd" d="M3 32c0 15.99 13.01 29 29 29s29-13.01 29-29S47.99 3 32 3 3 16.01 3 32m3 0C6 17.663 17.663 6 32 6s26 11.663 26 26-11.663 26-26 26S6 46.337 6 32m5-4.5a1.5 1.5 0 0 0 1.5 1.5c8.913 0 11.295-5.7 11.392-5.943a1.49 1.49 0 0 0-.822-1.934 1.506 1.506 0 0 0-1.956.804C21.043 22.093 19.29 26 12.5 26a1.5 1.5 0 0 0-1.5 1.5m10.332 12.27c-1.833 0-3.837-.552-5.77-2.098a1.5 1.5 0 0 1 1.875-2.341c4.015 3.21 7.959.133 8.125 0a1.5 1.5 0 1 1 1.875 2.34c-1.209.969-3.482 2.099-6.105 2.099m15.23-2.098c1.933 1.546 3.937 2.098 5.77 2.098 2.623 0 4.896-1.13 6.105-2.098a1.5 1.5 0 0 0-1.875-2.341c-.166.133-4.108 3.21-8.125 0a1.499 1.499 0 1 0-1.875 2.34M51.5 29c-8.913 0-11.296-5.7-11.393-5.943a1.499 1.499 0 0 1 2.779-1.128c.087.199 1.854 4.07 8.613 4.07a1.5 1.5 0 0 1 .001 3m-24 22h8.858a1.5 1.5 0 0 0 0-3H27.5a1.5 1.5 0 0 0 0 3" clip-rule="evenodd"/></svg>
